static/img/in-field/lists-focus-dark.svg

<svg fill="none" height="57" viewBox="0 0 510 57" width="510" xmlns="http://www.w3.org/2000/svg"><path d="m2 2.2002h506v52h-506z" fill="#464b52"/><path d="m18.1592 37.2002v-15.7051h1.8262v14.0508h6.9287v1.6543zm13.1943 0h-1.7832v-11.7734h1.7832zm-1.9336-14.9639c0-.4082.1003-.7054.3008-.8916.2005-.1933.4512-.29.752-.29.2864 0 .5335.0967.7412.29.2076.1934.3115.4906.3115.8916 0 .4011-.1039.7019-.3115.9024-.2077.1933-.4548.29-.7412.29-.3008 0-.5515-.0967-.752-.29-.2005-.2005-.3008-.5013-.3008-.9024zm13.5596 11.752c0 1.0957-.4082 1.9407-1.2246 2.5351s-1.9623.8916-3.4375.8916c-1.5612 0-2.7787-.247-3.6524-.7412v-1.6543c.5658.2865 1.1709.5121 1.8155.6768.6517.1647 1.2783.2471 1.8799.2471.9309 0 1.6471-.1469 2.1484-.4405.5013-.3008.7519-.7555.7519-1.3642 0-.4584-.2005-.8487-.6015-1.1709-.3939-.3295-1.1673-.7162-2.3203-1.1602-1.0957-.4082-1.8763-.7627-2.3418-1.0635-.4584-.3079-.8021-.6552-1.0313-1.042-.222-.3867-.333-.8486-.333-1.3857 0-.9596.3903-1.7152 1.1709-2.2666.7806-.5586 1.8512-.8379 3.2119-.8379 1.2676 0 2.5065.2578 3.7168.7735l-.6338 1.4501c-1.1816-.4869-2.2522-.7304-3.2119-.7304-.845 0-1.4824.1325-1.9121.3974-.4297.265-.6445.6302-.6445 1.0957 0 .3151.0788.5837.2363.8057.1647.222.4261.4333.7842.6338s1.0456.4906 2.0625.8701c1.3965.5085 2.3382 1.0205 2.8252 1.5361.4941.5157.7412 1.1638.7412 1.9444zm6.9639 1.9551c.3151 0 .6194-.0215.913-.0645.2937-.0501.5264-.1003.6983-.1504v1.3643c-.1934.0931-.4798.1683-.8594.2256-.3724.0644-.709.0966-1.0098.0966-2.2773 0-3.416-1.1995-3.416-3.5986v-7.0039h-1.6865v-.8594l1.6865-.7412.752-2.5137h1.0312v2.7286h3.4161v1.3857h-3.4161v6.9287c0 .709.1683 1.2533.5049 1.6328.3366.3796.7985.5694 1.3858.5694zm10.458 1.2568v-15.7051h1.8261v15.7051zm9.9287-1.2568c.3151 0 .6194-.0215.9131-.0645.2936-.0501.5263-.1003.6982-.1504v1.3643c-.1934.0931-.4798.1683-.8594.2256-.3724.0644-.709.0966-1.0097.0966-2.2774 0-3.4161-1.1995-3.4161-3.5986v-7.0039h-1.6865v-.8594l1.6865-.7412.752-2.5137h1.0313v2.7286h3.416v1.3857h-3.416v6.9287c0 .709.1682 1.2533.5048 1.6328.3366.3796.7985.5694 1.3858.5694zm9.1982 1.4716c-1.7402 0-3.1152-.5299-4.125-1.5898-1.0026-1.0599-1.5039-2.5316-1.5039-4.415 0-1.8978.4655-3.4053 1.3965-4.5225.9381-1.1172 2.195-1.6758 3.7705-1.6758 1.4753 0 2.6426.487 3.502 1.461.8593.9667 1.289 2.2451 1.289 3.8349v1.1279h-8.1103c.0358 1.3822.3831 2.4314 1.042 3.1475.666.7161 1.6005 1.0742 2.8037 1.0742 1.2676 0 2.5208-.265 3.7597-.7949v1.5898c-.6302.2722-1.2282.4655-1.7939.5801-.5586.1218-1.2354.1826-2.0303.1826zm-.4834-10.7099c-.9453 0-1.7008.3079-2.2666.9238-.5586.6159-.888 1.4681-.9883 2.5566h6.1553c0-1.1243-.2506-1.9837-.7519-2.5781-.5013-.6015-1.2175-.9023-2.1485-.9023zm23.1201 10.4951v-7.6592c0-.9381-.2-1.64-.602-2.1055-.401-.4726-1.024-.7089-1.8687-.7089-1.11 0-1.93.3186-2.4599.956-.53.6374-.7949 1.6185-.7949 2.9434v6.5742h-1.7833v-7.6592c0-.9381-.2005-1.64-.6015-2.1055-.4011-.4726-1.0277-.7089-1.8799-.7089-1.1172 0-1.9372.3366-2.46 1.0097-.5156.666-.7734 1.7617-.7734 3.2871v6.1768h-1.7832v-11.7734h1.4502l.29 1.6113h.086c.3366-.5729.8092-1.0205 1.4179-1.3428.6159-.3223 1.3034-.4834 2.0625-.4834 1.8405 0 3.0437.666 3.6094 1.9981h.086c.3509-.6159.8593-1.1029 1.5253-1.461.6661-.358 1.4252-.5371 2.2774-.5371 1.3321 0 2.3271.3438 2.9861 1.0313.666.6803.999 1.7724.999 3.2763v7.6807z" fill="#fff"/><path d="m2 2.2002h506v52h-506z" stroke="#019aeb" stroke-width="4"/></svg>

<svg width="510" height="57" viewBox="0 0 510 57" fill="none" xmlns="http://www.w3.org/2000/svg">
<rect x="2" y="2.2002" width="506" height="52" fill="#464B52"/>
<path d="M18.1592 37.2002V21.4951H19.9854V35.5459H26.9141V37.2002H18.1592ZM31.3535 37.2002H29.5703V25.4268H31.3535V37.2002ZM29.4199 22.2363C29.4199 21.8281 29.5202 21.5309 29.7207 21.3447C29.9212 21.1514 30.1719 21.0547 30.4727 21.0547C30.7591 21.0547 31.0062 21.1514 31.2139 21.3447C31.4215 21.5381 31.5254 21.8353 31.5254 22.2363C31.5254 22.6374 31.4215 22.9382 31.2139 23.1387C31.0062 23.332 30.7591 23.4287 30.4727 23.4287C30.1719 23.4287 29.9212 23.332 29.7207 23.1387C29.5202 22.9382 29.4199 22.6374 29.4199 22.2363ZM42.9795 33.9883C42.9795 35.084 42.5713 35.929 41.7549 36.5234C40.9385 37.1178 39.7926 37.415 38.3174 37.415C36.7562 37.415 35.5387 37.168 34.665 36.6738V35.0195C35.2308 35.306 35.8359 35.5316 36.4805 35.6963C37.1322 35.861 37.7588 35.9434 38.3604 35.9434C39.2913 35.9434 40.0075 35.7965 40.5088 35.5029C41.0101 35.2021 41.2607 34.7474 41.2607 34.1387C41.2607 33.6803 41.0602 33.29 40.6592 32.9678C40.2653 32.6383 39.4919 32.2516 38.3389 31.8076C37.2432 31.3994 36.4626 31.0449 35.9971 30.7441C35.5387 30.4362 35.195 30.0889 34.9658 29.7021C34.7438 29.3154 34.6328 28.8535 34.6328 28.3164C34.6328 27.3568 35.0231 26.6012 35.8037 26.0498C36.5843 25.4912 37.6549 25.2119 39.0156 25.2119C40.2832 25.2119 41.5221 25.4697 42.7324 25.9854L42.0986 27.4355C40.917 26.9486 39.8464 26.7051 38.8867 26.7051C38.0417 26.7051 37.4043 26.8376 36.9746 27.1025C36.5449 27.3675 36.3301 27.7327 36.3301 28.1982C36.3301 28.5133 36.4089 28.7819 36.5664 29.0039C36.7311 29.2259 36.9925 29.4372 37.3506 29.6377C37.7087 29.8382 38.3962 30.1283 39.4131 30.5078C40.8096 31.0163 41.7513 31.5283 42.2383 32.0439C42.7324 32.5596 42.9795 33.2077 42.9795 33.9883ZM49.9434 35.9434C50.2585 35.9434 50.5628 35.9219 50.8564 35.8789C51.1501 35.8288 51.3828 35.7786 51.5547 35.7285V37.0928C51.3613 37.1859 51.0749 37.2611 50.6953 37.3184C50.3229 37.3828 49.9863 37.415 49.6855 37.415C47.4082 37.415 46.2695 36.2155 46.2695 33.8164V26.8125H44.583V25.9531L46.2695 25.2119L47.0215 22.6982H48.0527V25.4268H51.4688V26.8125H48.0527V33.7412C48.0527 34.4502 48.221 34.9945 48.5576 35.374C48.8942 35.7536 49.3561 35.9434 49.9434 35.9434ZM60.4014 37.2002V21.4951H62.2275V37.2002H60.4014ZM70.3301 35.9434C70.6452 35.9434 70.9495 35.9219 71.2432 35.8789C71.5368 35.8288 71.7695 35.7786 71.9414 35.7285V37.0928C71.748 37.1859 71.4616 37.2611 71.082 37.3184C70.7096 37.3828 70.373 37.415 70.0723 37.415C67.7949 37.415 66.6562 36.2155 66.6562 33.8164V26.8125H64.9697V25.9531L66.6562 25.2119L67.4082 22.6982H68.4395V25.4268H71.8555V26.8125H68.4395V33.7412C68.4395 34.4502 68.6077 34.9945 68.9443 35.374C69.2809 35.7536 69.7428 35.9434 70.3301 35.9434ZM79.5283 37.415C77.7881 37.415 76.4131 36.8851 75.4033 35.8252C74.4007 34.7653 73.8994 33.2936 73.8994 31.4102C73.8994 29.5124 74.3649 28.0049 75.2959 26.8877C76.234 25.7705 77.4909 25.2119 79.0664 25.2119C80.5417 25.2119 81.709 25.6989 82.5684 26.6729C83.4277 27.6396 83.8574 28.918 83.8574 30.5078V31.6357H75.7471C75.7829 33.0179 76.1302 34.0671 76.7891 34.7832C77.4551 35.4993 78.3896 35.8574 79.5928 35.8574C80.8604 35.8574 82.1136 35.5924 83.3525 35.0625V36.6523C82.7223 36.9245 82.1243 37.1178 81.5586 37.2324C81 37.3542 80.3232 37.415 79.5283 37.415ZM79.0449 26.7051C78.0996 26.7051 77.3441 27.013 76.7783 27.6289C76.2197 28.2448 75.8903 29.097 75.79 30.1855H81.9453C81.9453 29.0612 81.6947 28.2018 81.1934 27.6074C80.6921 27.0059 79.9759 26.7051 79.0449 26.7051ZM102.165 37.2002V29.541C102.165 28.6029 101.965 27.901 101.563 27.4355C101.162 26.9629 100.539 26.7266 99.6943 26.7266C98.5843 26.7266 97.7643 27.0452 97.2344 27.6826C96.7044 28.32 96.4395 29.3011 96.4395 30.626V37.2002H94.6562V29.541C94.6562 28.6029 94.4557 27.901 94.0547 27.4355C93.6536 26.9629 93.027 26.7266 92.1748 26.7266C91.0576 26.7266 90.2376 27.0632 89.7148 27.7363C89.1992 28.4023 88.9414 29.498 88.9414 31.0234V37.2002H87.1582V25.4268H88.6084L88.8984 27.0381H88.9844C89.321 26.4652 89.7936 26.0176 90.4023 25.6953C91.0182 25.373 91.7057 25.2119 92.4648 25.2119C94.3053 25.2119 95.5085 25.8779 96.0742 27.21H96.1602C96.5111 26.5941 97.0195 26.1071 97.6855 25.749C98.3516 25.391 99.1107 25.2119 99.9629 25.2119C101.295 25.2119 102.29 25.5557 102.949 26.2432C103.615 26.9235 103.948 28.0156 103.948 29.5195V37.2002H102.165Z" fill="#fff"/>
<rect x="2" y="2.2002" width="506" height="52" stroke="#019AEB" stroke-width="4"/>
</svg>
